X: 3105
Q:"Strathspey."
M: C
L: 1/16
K: A
|:\
vc4 B3A (EA3) A4 | c3cB3A (cde2) (fga2) |\
c4 B3A (EA3) A4 | F3B B3c dcBA GB3 :|
|:\
vAuA3 vc3uA ve3vA ua4 | AA3 c3A fedc ea3 |\


